#define my_first_bitmap_width 40
#define my_first_bitmap_height 40
static unsigned char my_first_bitmap_bits[] = {
   0xff, 0xff, 0xff, 0xff, 0xff, 0x05, 0x00, 0x00, 0x00, 0xa0, 0xfd, 0xff,
   0xff, 0xff, 0xbf, 0x05, 0x00, 0x00, 0x00, 0xa0, 0x05, 0x00, 0x00, 0x00,
   0xa0, 0xfd, 0xff, 0xff, 0xff, 0xbf, 0x05, 0x00, 0x00, 0x00, 0xa0, 0x05,
   0x00, 0x00, 0x00, 0xa0, 0xfd, 0xff, 0xff, 0xff, 0xbf, 0x05, 0x00, 0x00,
   0x00, 0xa0, 0x05, 0x00, 0x00, 0x00, 0xa0, 0xfd, 0xff, 0xff, 0xff, 0xbf,
   0x05, 0x00, 0x00, 0x00, 0xa0, 0x05, 0x00, 0x00, 0x00, 0xa0, 0xfd, 0xff,
   0xff, 0xff, 0xbf, 0x05, 0x00, 0x00, 0x00, 0xa0, 0x05, 0x00, 0x00, 0x00,
   0xa0, 0xfd, 0xff, 0xff, 0xff, 0xbf, 0x05, 0x00, 0x00, 0x00, 0xa0, 0x05,
   0x00, 0x00, 0x00, 0xa0, 0xfd, 0xff, 0xff, 0xff, 0xbf, 0x55, 0x01, 0x00,
   0x00, 0xa0, 0x55, 0x01, 0x00, 0x00, 0xa0, 0x55, 0x01, 0x00, 0x00, 0xa0,
   0x55, 0x01, 0x00, 0x00, 0xa0, 0x55, 0x01, 0x00, 0x00, 0xa0, 0x55, 0x01,
   0x00, 0x00, 0xa0, 0x55, 0x01, 0x00, 0x00, 0xa0, 0x55, 0x01, 0x00, 0x00,
   0xa0, 0x55, 0x01, 0x00, 0x00, 0xa0, 0x55, 0x01, 0x00, 0x00, 0xa0, 0x55,
   0x01, 0x00, 0x00, 0xa0, 0x55, 0x01, 0x00, 0x00, 0xa0, 0x55, 0x01, 0x00,
   0x00, 0xa0, 0x55, 0x01, 0x00, 0x00, 0xa0, 0x55, 0x01, 0x00, 0x00, 0xa0,
   0x55, 0x01, 0x00, 0x00, 0xa0, 0xfd, 0xff, 0xff, 0xff, 0xbf, 0x05, 0x00,
   0x00, 0x00, 0xa0, 0xff, 0xff, 0xff, 0xff, 0xff };
